builds/development/lbd/img/cp-logo.svg

<svg data-name="Calque 1" xmlns="http://www.w3.org/2000/svg" viewBox="0 0 226 303"><defs><linearGradient id="a" x1="3.38" y1="619" x2="222.62" y2="619" gradientTransform="matrix(1 0 0 -1 0 770)" gradientUnits="userSpaceOnUse"><stop offset="0" stop-color="#ff009b"/><stop offset=".65" stop-color="#573add"/><stop offset="1" stop-color="#0058ff"/></linearGradient></defs><path d="M169.82 91.3l-67 38.68v-17.35l8.33 4.81 49.73-28.7V31.33l-49.72-28.7-49.72 28.7v42l-8.35-4.82L3.38 97.18v57.45L31.86 171l-14.29 8.24v60.95l102.51 59.15 102.54-59.16V121.79zm-15.15-6.13l-40.41 23.32V61.85l40.41-23.33zM111.16 9.81l40.39 23.32-40.38 23.33-40.41-23.33zm-43.5 28.7l40.39 23.32v46.64l-5.22-3v-8.29l-35.17-20.3zM53.1 75.63L93.49 99l-40.36 23.29L12.7 99zm43.52 28.7v29.22l-29.35 17v17.41l-11 6.38v-46.71zM9.62 151v-46.64L50 127.63v46.7zm28.44 23.65l15.06 8.69 14.15-8.17v29.18L26.94 181zM117 290.43l-93.22-53.8v-50.24l93.22 53.8zm0-57.43l-43.53-25.1v-50.27L117 182.75zm3.08-55.6l-43.51-25.1 93.26-53.83 43.5 25.16-93.25 53.79zm46.67 87.89l-43.55 25.12v-50.22l43.55-25.12zm49.69-28.68l-43.5 25.12v-50.25l43.5-25.12zm0-57.42L123.18 233v-50.21L216.43 129z" fill="url(#a)"/></svg>

<svg id="Calque_1" data-name="Calque 1" xmlns="http://www.w3.org/2000/svg" xmlns:xlink="http://www.w3.org/1999/xlink" viewBox="0 0 226 303"><defs><style>.cls-1{fill:url(#Dégradé_sans_nom_2);}</style><linearGradient id="Dégradé_sans_nom_2" x1="3.38" y1="619" x2="222.62" y2="619" gradientTransform="matrix(1, 0, 0, -1, 0, 770)" gradientUnits="userSpaceOnUse"><stop offset="0" stop-color="#ff009b"/><stop offset="0.65" stop-color="#573add"/><stop offset="1" stop-color="#0058ff"/></linearGradient></defs><title>Plan de travail 1</title><path class="cls-1" d="M169.82,91.3l-67,38.68V112.63l8.33,4.81,49.73-28.7V31.33L111.16,2.63,61.44,31.33v42l-8.35-4.82L3.38,97.18v57.45L31.86,171l-14.29,8.24v60.95l102.51,59.15,102.54-59.16V121.79Zm-15.15-6.13-40.41,23.32V61.85l40.41-23.33ZM111.16,9.81l40.39,23.32L111.17,56.46h0L70.76,33.13Zm-43.5,28.7,40.39,23.32v46.64l-5.22-3V97.18L67.66,76.88ZM53.1,75.63,93.49,99,53.13,122.29h0L12.7,99Zm43.52,28.7v29.22l-29.35,17v17.41l-11,6.38V127.63h0ZM9.62,151V104.36L50,127.63v46.7Zm28.44,23.65,15.06,8.69,14.15-8.17v29.18L26.94,181ZM117,290.43l-93.22-53.8V186.39L117,240.19ZM117,233,73.47,207.9V157.63L117,182.75Zm3.08-55.6L76.57,152.3l93.26-53.83,43.5,25.16-93.25,53.79Zm46.67,87.89-43.55,25.12V240.19l43.55-25.12Zm49.69-28.68-43.5,25.12V211.48l43.5-25.12Zm0-57.42L123.18,233V182.79L216.43,129Z"/></svg>
